X:361
T:Tongs by the Fire, The
R:jig
Z:id:hn-jig-361
M:6/8
L:1/8
K:G
GBd cAF|Gge dBG|cec BdB|ABG FED|
GBd cAF|Gge dBG|cec Bag|1 fef g3:|2 fef g2d||
|:gdB gdB|gfa gdB|gfg eag|fd^c def|
gbg faf|ege def|gdB AGA|1 BGF G2d:|2 BGF G3||
P:variations
|:G2B cAF|Gge dBG|c3 ~B3|ABG FED|
G2B cAF|Gge dBG|cBA Bdg|1 fef g3:|2 fef g2f||
|:gdB gdB|gaf gdB|gfg eag|fdd def|
~g3 ~f3|efe def|gdB ABc|1 BGG G2f:|2 BGG G3||

